X:85
T:Chicken Under the Washtub
C:Vivian Williams
N:Transcribed by Jim Nikora
R:bluegrass
L:1/8
Q:1/4=260
M:4/4
K:D
z6 Ac |: dc de fe de | a=f ^f2 d2 Ac | dc de fe dA | =c^c3/2A3/2 z2 Ac | dc de fe de | 
a=f ^f2 d2 A=c | d=f ed (3=cdc AG |1 FD z4 Ac :|2 FD z4 zD |: DF DF =CD CD | A,=C DG =FD CA, | 
DF (3EFE DE D=C | B,G, zA, G,4 | DF DF =CD CD | A,=C DG =FD FG | G/[A3/2A3/2] [AA][=cA] [A3A3]G | 
|1 =FD z4 zD :|2 =FD z6 | z8 | z8 | z8 | z8 | z8 | 


